X:21
T:Cudll Me Cudy. JaW.021
T:Mad Moll. JaW.021
T:Peacock Followed The Hen,aka. JaW.021
M:9/4
L:1/4
Q:3/4=120
C:..”or Mad Moll”
S:James Winder Ms, Lancashire, 1835-41
R:.Slip Jig
O:England
A:Wyresdale,Lancashire
N:Identical, except barring to PLFD 9C
Z:vmp.Chris Partington, Aug 2004
K:C
“_Barred 6/4 in MS”A|:c>decAAcAA|c>decAAB2G|!
c>decAAcAA|B>cdd>edB2G:|!
|:c>de(ge)e(ge)e|c>de(ge)eg2d|!
c>de(ge)e(ge)e|B>cdd>edB2G:|

